src/assets/icons/media-reading-writing,fancy,note-empty-alt.svg

<svg width="48" height="48" viewBox="0 0 48 48" fill="none" xmlns="http://www.w3.org/2000/svg">
<path opacity="0.2" d="M5 13C5 9.22876 5 7.34315 6.17157 6.17157C7.34315 5 9.22876 5 13 5H35C38.7712 5 40.6569 5 41.8284 6.17157C43 7.34315 43 9.22876 43 13V30H34C31.7909 30 30 31.7909 30 34V43H13C9.22876 43 7.34315 43 6.17157 41.8284C5 40.6569 5 38.7712 5 35V13Z" fill="black"/>
<path opacity="0.6" d="M43 30H34C31.7909 30 30 31.7909 30 34V43L43 30Z" fill="black"/>
</svg>

<svg xmlns="http://www.w3.org/2000/svg" width="48" height="48" fill="none" viewBox="0 0 48 48">
  <path fill="#000" d="M5 13c0-3.771 0-5.657 1.172-6.828C7.343 5 9.229 5 13 5h22c3.771 0 5.657 0 6.828 1.172C43 7.343 43 9.229 43 13v17h-9a4 4 0 00-4 4v9H13c-3.771 0-5.657 0-6.828-1.172C5 40.657 5 38.771 5 35V13z" opacity=".2"/>
  <path fill="#000" d="M43 30h-9a4 4 0 00-4 4v9l13-13z" opacity=".6"/>
</svg>
